X:254
M:4/4
L:1/4
K:G
[B,2E2] [B,G] [A,E] | [B,D] [CE] [EG] [^DF] | [B,2E2] [E2G2] | [EA] [FA] [GB] [EG] | [EA] [FA] [G2B2] | [D2B2] [Ec] [DB] | [Fd] [GB] [EA] [FA] | [D2G2] !sintro![D2B2] | [EG] [EA] [DG] [DF] | [B,E] [B,^D] [B,2E2] !eintro!|]
